X:483
T:Mrs. Galvin's
R:jig
D:Catherine McEvoy, Caoimh\'in \'O Raghallaigh & M\'iche\'al \'O Raghallaigh
Z:id:hn-jig-483
M:6/8
L:1/8
K:A
c2B cAA | eAA cBA | ~B3 BcB | Ace aed |
c2B cAA | eAA cBA | ~B3 BcB |1 BAG A2B :|2 BAG Ace ||
|: a2g gfe | c2e efg | aea gfe | cff f2g |
aea gfe | c2e efg |1 ~a3 aec | BAA Ace :|2 ~a3 ~a3 | ~a3 aed ||

